src/icons/service-prometheus.svg

<?xml version="1.0" encoding="utf-8"?>
<!-- Generator: Adobe Illustrator 20.1.0, SVG Export Plug-In . SVG Version: 6.00 Build 0)  -->
<svg version="1.1" id="Layer_1" xmlns="http://www.w3.org/2000/svg" xmlns:xlink="http://www.w3.org/1999/xlink" x="0px" y="0px"
	 viewBox="0 0 14 14" style="enable-background:new 0 0 14 14;" xml:space="preserve">
<style type="text/css">
	.st0{fill:#DA4E31;}
</style>
<title>HDL/Icon/Standard/Service/prometheus</title>
<desc>Created with Sketch.</desc>
<g id="Colors">
	<g id="Service-icons" transform="translate(-123.000000, -1440.000000)">
		<g id="Prometheus_1_" transform="translate(102.000000, 1422.000000)">
			<g id="HDL_x2F_Icon_x2F_Standard_x2F_Service_x2F_prometheus" transform="translate(21.000000, 18.000000)">
				<g id="Prometheus">
					<path id="Shape" class="st0" d="M7,0.1C3.2,0.1,0.1,3.2,0.1,7s3.1,6.9,6.9,6.9s6.9-3.1,6.9-6.9S10.8,0.1,7,0.1z M7,13
						c-1.1,0-2-0.7-2-1.6h4C9,12.3,8.1,13,7,13z M10.2,10.8H3.8V9.7h6.4V10.8z M10.2,9.1H3.8c0,0,0,0-0.1-0.1C3,8.2,2.9,7.8,2.7,7.4
						c0,0,0.8,0.2,1.4,0.3c0,0,0.3,0.1,0.7,0.1C4.4,7.3,4.2,6.7,4.2,6.1c0-1.4,1.1-2.6,0.7-3.5c0.4,0,0.8,0.8,0.8,2
						c0.4-0.5,0.6-1.5,0.6-2.1s0.4-1.4,0.8-1.4c-0.4,0.4,0.1,1,0.5,2.3c0.2,0.5,0.1,1.3,0.3,1.8C7.9,4.1,8,2.5,8.7,2
						C8.4,2.7,8.8,3.5,9,4c0.4,0.7,0.6,1.2,0.6,2.1c0,0.6-0.2,1.2-0.6,1.7c0.5-0.1,0.8-0.2,0.8-0.2l1.5-0.3
						C11.2,7.3,11,8.2,10.2,9.1L10.2,9.1z"/>
				</g>
			</g>
		</g>
	</g>
</g>
</svg>

<?xml version="1.0" encoding="UTF-8"?>
<svg width="14px" height="14px" viewBox="0 0 14 14" version="1.1" xmlns="http://www.w3.org/2000/svg" xmlns:xlink="http://www.w3.org/1999/xlink">
    <!-- Generator: Sketch 59 (86127) - https://sketch.com -->
    <title>HDL/Icon/Standard/Service/prometheus</title>
    <desc>Created with Sketch.</desc>
    <g id="Colors" stroke="none" stroke-width="1" fill="none" fill-rule="evenodd">
        <g id="Service-icons" transform="translate(-123.000000, -1440.000000)" fill="#DA4E31">
            <g id="Prometheus" transform="translate(102.000000, 1422.000000)">
                <g id="HDL/Icon/Standard/Service/prometheus" transform="translate(21.000000, 18.000000)">
                    <g id="Prometheus">
                        <path d="M7,0.1 C3.2,0.1 0.1,3.2 0.1,7 C0.1,10.8 3.2,13.9 7,13.9 C10.8,13.9 13.9,10.8 13.9,7 C13.9,3.2 10.8,0.1 7,0.1 Z M7,13 C5.9,13 5,12.3 5,11.4 L9,11.4 C9,12.3 8.1,13 7,13 Z M10.2,10.8 L3.8,10.8 L3.8,9.7 L10.2,9.7 L10.2,10.8 Z M10.2,9.1 L3.8,9.1 C3.8,9.1 3.8,9.1 3.7,9 C3,8.2 2.9,7.8 2.7,7.4 C2.7,7.4 3.5,7.6 4.1,7.7 C4.1,7.7 4.4,7.8 4.8,7.8 C4.4,7.3 4.2,6.7 4.2,6.1 C4.2,4.7 5.3,3.5 4.9,2.6 C5.3,2.6 5.7,3.4 5.7,4.6 C6.1,4.1 6.3,3.1 6.3,2.5 C6.3,1.9 6.7,1.1 7.1,1.1 C6.7,1.5 7.2,2.1 7.6,3.4 C7.8,3.9 7.7,4.7 7.9,5.2 C7.9,4.1 8,2.5 8.7,2 C8.4,2.7 8.8,3.5 9,4 C9.4,4.7 9.6,5.2 9.6,6.1 C9.6,6.7 9.4,7.3 9,7.8 C9.5,7.7 9.8,7.6 9.8,7.6 L11.3,7.3 C11.2,7.3 11,8.2 10.2,9.1 L10.2,9.1 Z" id="Shape" fill-rule="nonzero"></path>
                    </g>
                </g>
            </g>
        </g>
    </g>
</svg>
